brandFactory_export/1.Light/Casa hogar_1Light.svg

<?xml version="1.0" encoding="UTF-8"?>
<svg width="24px" height="24px" viewBox="0 0 24 24" version="1.1" xmlns="http://www.w3.org/2000/svg" xmlns:xlink="http://www.w3.org/1999/xlink">
    <title>1.Light/Casa hogar_1Light</title>
    <g id="Symbols" stroke="none" stroke-width="1" fill="none" fill-rule="evenodd">
        <g id="1.Light/Casa-hogar_1Light" fill="#5CB615" fill-rule="nonzero">
            <path d="M15.9327731,22.6352941 L18.9478992,22.6352941 C19.4319328,22.6352941 19.8252101,22.3058824 19.8252101,21.8991597 L19.8252101,12.6655462 C19.8285714,12.389916 20.0571429,12.1680672 20.3361345,12.1714286 L21.7210084,12.1714286 C22.1714286,12.1714286 22.4403361,11.9193277 22.5445378,11.6840336 C22.6588235,11.4319328 22.594958,11.1361345 22.3865546,10.9546218 L12.4773109,1.22016807 C12.1411765,0.890756303 11.4823529,0.890756303 11.1495798,1.22016807 L1.23697479,10.9579832 C1.03193277,11.1394958 0.968067227,11.4352941 1.0789916,11.687395 C1.18319328,11.9226891 1.45210084,12.1747899 1.90252101,12.1747899 L3.14621849,12.1747899 C3.42857143,12.1747899 3.65714286,12.3966387 3.65714286,12.6689076 L3.65714286,21.902521 C3.65714286,22.3092437 4.05042017,22.6386555 4.53109244,22.6386555 L7.7512605,22.6386555 L7.7512605,17.7815126 C7.75462185,17.5058824 7.98319328,17.2840336 8.26218487,17.287395 L15.4184874,17.287395 C15.7008403,17.287395 15.9294118,17.5092437 15.9294118,17.7815126 L15.9327731,22.6352941 Z M18.9478992,23.6235294 L15.4218487,23.6235294 C15.1428571,23.626929 14.9142857,23.4084034 14.9109244,23.1294118 L14.9109244,18.2789916 L8.77647059,18.2789916 L8.77647059,23.1327731 C8.7697479,23.4117647 8.54117647,23.6302521 8.26554622,23.626929 L4.53445378,23.626929 C3.48571429,23.626929 2.63529412,22.8537815 2.63529412,21.902521 L2.63529412,13.1630252 L1.90252101,13.1630252 C1.11932773,13.1630252 0.426890756,12.7361345 0.134453782,12.0739496 C-0.134453782,11.4521008 0.00672268908,10.7596639 0.507563025,10.2722689 L10.4168067,0.527731092 C11.1327731,-0.174789916 12.4907563,-0.174789916 13.2067227,0.527731092 L23.1193277,10.2655462 C23.6168067,10.7563025 23.7613445,11.4453782 23.4890756,12.0672269 C23.2,12.7294118 22.507563,13.1596639 21.7210084,13.1596639 L20.8504202,13.1596639 L20.8504202,21.8991597 C20.8504202,22.8504202 19.9966387,23.6235294 18.9478992,23.6235294 L18.9478992,23.6235294 Z" id="Casa-hogar_1Light"></path>
        </g>
    </g>
</svg>

<svg width="24" height="24" viewBox="0 0 24 24" xmlns="http://www.w3.org/2000/svg"><path d="M15.933 22.635h3.015c.484 0 .877-.33.877-.736v-9.233a.503.503 0 01.511-.495h1.385c.45 0 .72-.252.824-.487a.624.624 0 00-.158-.73l-9.91-9.734c-.336-.33-.995-.33-1.327 0l-9.913 9.738a.634.634 0 00-.158.73c.104.235.373.487.824.487h1.243c.283 0 .511.222.511.494v9.234c0 .406.393.736.874.736h3.22v-4.857a.503.503 0 01.511-.495h7.156c.283 0 .511.222.511.495l.004 4.853zm3.015.989h-3.526a.5.5 0 01-.511-.495v-4.85H8.776v4.854a.505.505 0 01-.51.494H4.534c-1.048 0-1.899-.773-1.899-1.724v-8.74h-.732c-.784 0-1.476-.427-1.769-1.09-.268-.62-.127-1.313.374-1.8L10.417.527c.716-.703 2.074-.703 2.79 0l9.912 9.738c.498.49.642 1.18.37 1.801-.289.662-.981 1.093-1.768 1.093h-.87v8.74c0 .95-.854 1.724-1.903 1.724z" fill="#5CB615" fill-rule="nonzero"/></svg>
